resources/haticons/SVG/address-book.svg

<!-- Generated by IcoMoon.io -->
<svg version="1.1" xmlns="http://www.w3.org/2000/svg" width="24" height="24" viewBox="0 0 24 24">
<title>address-book</title>
<path d="M4.5 0v24h18v-24h-18zM13.5 6.008c1.653 0 2.992 1.34 2.992 2.992s-1.34 2.992-2.992 2.992-2.992-1.34-2.992-2.992 1.34-2.992 2.992-2.992v0zM18 18h-9v-1.5c0-1.657 1.343-3 3-3v0h3c1.657 0 3 1.343 3 3v1.5z"></path>
<path d="M1.5 1.5h2.25v4.5h-2.25v-4.5z"></path>
<path d="M1.5 7.5h2.25v4.5h-2.25v-4.5z"></path>
<path d="M1.5 13.5h2.25v4.5h-2.25v-4.5z"></path>
<path d="M1.5 19.5h2.25v4.5h-2.25v-4.5z"></path>
</svg>

<svg xmlns="http://www.w3.org/2000/svg" width="24" height="24"><path d="M4.5 0v24h18V0h-18zm9 6.008a2.992 2.992 0 1 1 0 5.984 2.992 2.992 0 0 1 0-5.984zM18 18H9v-1.5a3 3 0 0 1 3-3h3a3 3 0 0 1 3 3V18zM1.5 1.5h2.25V6H1.5V1.5zm0 6h2.25V12H1.5V7.5zm0 6h2.25V18H1.5v-4.5zm0 6h2.25V24H1.5v-4.5z"/></svg>
